project/Sea Blue.xmp
<x:xmpmeta xmlns:x="adobe:ns:meta/" x:xmptk="Adobe XMP Core 7.0-c000 1.000000, 0000/00/00-00:00:00        ">
 <rdf:RDF xmlns:rdf="http://www.w3.org/1999/02/22-rdf-syntax-ns#">
  <rdf:Description rdf:about=""
    xmlns:crs="http://ns.adobe.com/camera-raw-settings/1.0/"
   crs:PresetType="Normal"
   crs:Cluster=""
   crs:UUID="DFD9EA5F34654CE0958E9CD94916A812"
   crs:SupportsAmount2="True"
   crs:SupportsAmount="True"
   crs:SupportsColor="True"
   crs:SupportsMonochrome="True"
   crs:SupportsHighDynamicRange="True"
   crs:SupportsNormalDynamicRange="True"
   crs:SupportsSceneReferred="True"
   crs:SupportsOutputReferred="True"
   crs:RequiresRGBTables="False"
   crs:ShowInPresets="True"
   crs:ShowInQuickActions="False"
   crs:CameraModelRestriction=""
   crs:Copyright=""
   crs:ContactInfo=""
   crs:Version="18.3"
   crs:ProcessVersion="15.4"
   crs:WhiteBalance="Custom"
   crs:Temperature="4786"
   crs:Tint="+39"
   crs:Exposure2012="0.00"
   crs:Contrast2012="+49"
   crs:Highlights2012="-24"
   crs:Shadows2012="+29"
   crs:Whites2012="+5"
   crs:Blacks2012="+4"
   crs:Texture="+24"
   crs:Clarity2012="+15"
   crs:Dehaze="+51"
   crs:Vibrance="+4"
   crs:Saturation="0"
   crs:ParametricShadows="0"
   crs:ParametricDarks="0"
   crs:ParametricLights="0"
   crs:ParametricHighlights="0"
   crs:ParametricShadowSplit="25"
   crs:ParametricMidtoneSplit="50"
   crs:ParametricHighlightSplit="75"
   crs:HueAdjustmentRed="0"
   crs:HueAdjustmentOrange="-53"
   crs:HueAdjustmentYellow="-38"
   crs:HueAdjustmentGreen="-15"
   crs:HueAdjustmentAqua="-6"
   crs:HueAdjustmentBlue="-2"
   crs:HueAdjustmentPurple="+14"
   crs:HueAdjustmentMagenta="0"
   crs:SaturationAdjustmentRed="0"
   crs:SaturationAdjustmentOrange="-5"
   crs:SaturationAdjustmentYellow="+27"
   crs:SaturationAdjustmentGreen="0"
   crs:SaturationAdjustmentAqua="0"
   crs:SaturationAdjustmentBlue="+9"
   crs:SaturationAdjustmentPurple="0"
   crs:SaturationAdjustmentMagenta="0"
   crs:LuminanceAdjustmentRed="0"
   crs:LuminanceAdjustmentOrange="-5"
   crs:LuminanceAdjustmentYellow="+22"
   crs:LuminanceAdjustmentGreen="0"
   crs:LuminanceAdjustmentAqua="+10"
   crs:LuminanceAdjustmentBlue="+7"
   crs:LuminanceAdjustmentPurple="+1"
   crs:LuminanceAdjustmentMagenta="0"
   crs:SplitToningShadowHue="293"
   crs:SplitToningShadowSaturation="2"
   crs:SplitToningHighlightHue="27"
   crs:SplitToningHighlightSaturation="0"
   crs:SplitToningBalance="+59"
   crs:ColorGradeMidtoneHue="77"
   crs:ColorGradeMidtoneSat="8"
   crs:ColorGradeShadowLum="0"
   crs:ColorGradeMidtoneLum="0"
   crs:ColorGradeHighlightLum="+45"
   crs:ColorGradeBlending="58"
   crs:ColorGradeGlobalHue="0"
   crs:ColorGradeGlobalSat="0"
   crs:ColorGradeGlobalLum="0"
   crs:PerspectiveUpright="0"
   crs:PerspectiveVertical="0"
   crs:PerspectiveHorizontal="0"
   crs:PerspectiveRotate="0.0"
   crs:PerspectiveAspect="0"
   crs:PerspectiveScale="100"
   crs:PerspectiveX="0.00"
   crs:PerspectiveY="0.00"
   crs:GrainAmount="48"
   crs:GrainSize="25"
   crs:GrainFrequency="50"
   crs:PostCropVignetteAmount="0"
   crs:ShadowTint="0"
   crs:RedHue="0"
   crs:RedSaturation="0"
   crs:GreenHue="0"
   crs:GreenSaturation="0"
   crs:BlueHue="0"
   crs:BlueSaturation="0"
   crs:HDREditMode="0"
   crs:CurveRefineSaturation="100"
   crs:OverrideLookVignette="False"
   crs:ToneCurveName2012="Custom"
   crs:HasSettings="True"
   crs:CropConstrainToWarp="0"
   crs:AsShotTemperature="5300"
   crs:AsShotTint="25">
   <crs:Name>
    <rdf:Alt>
     <rdf:li xml:lang="x-default">Sea Blue</rdf:li>
    </rdf:Alt>
   </crs:Name>
   <crs:ShortName>
    <rdf:Alt>
     <rdf:li xml:lang="x-default"/>
    </rdf:Alt>
   </crs:ShortName>
   <crs:SortName>
    <rdf:Alt>
     <rdf:li xml:lang="x-default"/>
    </rdf:Alt>
   </crs:SortName>
   <crs:Group>
    <rdf:Alt>
     <rdf:li xml:lang="x-default"/>
    </rdf:Alt>
   </crs:Group>
   <crs:Description>
    <rdf:Alt>
     <rdf:li xml:lang="x-default"/>
    </rdf:Alt>
   </crs:Description>
   <crs:ToneCurvePV2012>
    <rdf:Seq>
     <rdf:li>3, 32</rdf:li>
     <rdf:li>38, 50</rdf:li>
     <rdf:li>65, 65</rdf:li>
     <rdf:li>194, 196</rdf:li>
     <rdf:li>255, 255</rdf:li>
    </rdf:Seq>
   </crs:ToneCurvePV2012>
   <crs:ToneCurvePV2012Red>
    <rdf:Seq>
     <rdf:li>12, 0</rdf:li>
     <rdf:li>75, 71</rdf:li>
     <rdf:li>130, 128</rdf:li>
     <rdf:li>209, 198</rdf:li>
     <rdf:li>255, 255</rdf:li>
    </rdf:Seq>
   </crs:ToneCurvePV2012Red>
   <crs:ToneCurvePV2012Green>
    <rdf:Seq>
     <rdf:li>0, 0</rdf:li>
     <rdf:li>64, 59</rdf:li>
     <rdf:li>129, 128</rdf:li>
     <rdf:li>211, 211</rdf:li>
     <rdf:li>255, 255</rdf:li>
    </rdf:Seq>
   </crs:ToneCurvePV2012Green>
   <crs:ToneCurvePV2012Blue>
    <rdf:Seq>
     <rdf:li>0, 27</rdf:li>
     <rdf:li>4, 27</rdf:li>
     <rdf:li>32, 44</rdf:li>
     <rdf:li>38, 62</rdf:li>
     <rdf:li>128, 127</rdf:li>
     <rdf:li>200, 189</rdf:li>
     <rdf:li>255, 255</rdf:li>
    </rdf:Seq>
   </crs:ToneCurvePV2012Blue>
   <crs:PointColors>
    <rdf:Seq>
     <rdf:li>-1.000000, -1.000000, -1.000000, -1.000000, -1.000000, -1.000000, -1.000000, -1.000000, -1.000000, -1.000000, -1.000000, -1.000000, -1.000000, -1.000000, -1.000000, -1.000000, -1.000000, -1.000000, -1.000000</rdf:li>
    </rdf:Seq>
   </crs:PointColors>
   <crs:ColorVariance>
    <rdf:Seq>
     <rdf:li>-50.000000</rdf:li>
    </rdf:Seq>
   </crs:ColorVariance>
   <crs:LensBlur
    crs:Version="1"
    crs:Active="false"
    crs:ImageOrientation="0"
    crs:FocalRange="0 0 100 100"
    crs:BlurAmount="50"
    crs:BokehShape="0"
    crs:BokehShapeDetail="0"
    crs:HighlightsThreshold="50"
    crs:HighlightsBoost="50"
    crs:CatEyeAmount="0"
    crs:CatEyeScale="100"
    crs:BokehAspect="0"
    crs:BokehRotation="0"
    crs:SphericalAberration="0"/>
   <crs:Look>
    <rdf:Description
     crs:Name="Modern 04"
     crs:Amount="1.01"
     crs:Cluster="Adobe"
     crs:UUID="D991E97D3C94E5D2B74B29FF36280000"
     crs:SupportsMonochrome="false"
     crs:Copyright="© 2018 Adobe Systems, Inc."
     crs:Stubbed="true">
    <crs:Group>
     <rdf:Alt>
      <rdf:li xml:lang="x-default">Modern</rdf:li>
     </rdf:Alt>
    </crs:Group>
    </rdf:Description>
   </crs:Look>
  </rdf:Description>
 </rdf:RDF>
</x:xmpmeta>
